www/assets/icons/emoji_symbols.svg

<svg width="24" height="24" viewBox="0 0 24 24" xmlns="http://www.w3.org/2000/svg" fill='currentColor'><path d="M10.7095 2H2.70952V4H10.7095V2Z"/><path d="M5.70952 11H7.70952V7H10.7095V5H2.70952V7H5.70952V11Z"/><path d="M19.8913 12.4038L12.1132 20.1819L13.5274 21.5961L21.3055 13.818L19.8913 12.4038Z"/><path d="M14.2095 16C15.0379 16 15.7095 15.3284 15.7095 14.5C15.7095 13.6716 15.0379 13 14.2095 13C13.3811 13 12.7095 13.6716 12.7095 14.5C12.7095 15.3284 13.3811 16 14.2095 16Z"/><path d="M19.2095 21C20.0379 21 20.7095 20.3284 20.7095 19.5C20.7095 18.6716 20.0379 18 19.2095 18C18.3811 18 17.7095 18.6716 17.7095 19.5C17.7095 20.3284 18.3811 21 19.2095 21Z"/><path d="M15.2095 11C16.5895 11 17.7095 9.88 17.7095 8.5V4H20.7095V2H16.7095V6.51C16.2895 6.19 15.7795 6 15.2095 6C13.8295 6 12.7095 7.12 12.7095 8.5C12.7095 9.88 13.8295 11 15.2095 11Z"/><path d="M9.44952 15.96L8.03952 17.37L7.32952 16.66L7.67952 16.31C8.65952 15.33 8.65952 13.75 7.67952 12.77C7.18952 12.28 6.54952 12.04 5.90952 12.04C5.26952 12.04 4.62952 12.28 4.13952 12.77C3.15952 13.75 3.15952 15.33 4.13952 16.31L4.48952 16.66L3.42952 17.72C2.44952 18.7 2.44952 20.28 3.42952 21.26C3.92952 21.76 4.56952 22 5.20952 22C5.84952 22 6.48952 21.76 6.97952 21.27L8.03952 20.21L9.44952 21.62L10.8595 20.21L9.44952 18.8L10.8595 17.39L9.44952 15.96ZM5.55952 14.2C5.67952 14.08 5.81952 14.05 5.90952 14.05C5.99952 14.05 6.13952 14.08 6.25952 14.2C6.44952 14.4 6.44952 14.71 6.25952 14.91L5.90952 15.26L5.55952 14.9C5.36952 14.71 5.36952 14.39 5.55952 14.2ZM5.55952 19.85C5.43952 19.97 5.29952 20 5.20952 20C5.11952 20 4.97952 19.97 4.85952 19.85C4.66952 19.66 4.66952 19.34 4.85952 19.14L5.91952 18.08L6.62952 18.79L5.55952 19.85Z"/></svg>

<svg xmlns="http://www.w3.org/2000/svg" width="24" height="24" viewBox="0 0 24 24" fill='currentColor'><path d="M10.71 2h-8v2h8zm-5 9h2V7h3V5h-8v2h3zm14.181 1.404-7.778 7.778 1.414 1.414 7.778-7.778zM14.21 16a1.5 1.5 0 1 0 0-3 1.5 1.5 0 0 0 0 3m5 5a1.5 1.5 0 1 0 0-3 1.5 1.5 0 0 0 0 3m-4-10a2.5 2.5 0 0 0 2.5-2.5V4h3V2h-4v4.51c-.42-.32-.93-.51-1.5-.51a2.5 2.5 0 0 0 0 5m-5.76 4.96-1.41 1.41-.71-.71.35-.35a2.499 2.499 0 0 0-1.77-4.27 2.499 2.499 0 0 0-1.77 4.27l.35.35-1.06 1.06c-.98.98-.98 2.56 0 3.54.5.5 1.14.74 1.78.74s1.28-.24 1.77-.73l1.06-1.06 1.41 1.41 1.41-1.41-1.41-1.41 1.41-1.41zM5.56 14.2a.5.5 0 0 1 .35-.15.5.5 0 0 1 .35.15c.19.2.19.51 0 .71l-.35.35-.35-.36a.5.5 0 0 1 0-.7m0 5.65a.5.5 0 0 1-.35.15.5.5 0 0 1-.35-.15.513.513 0 0 1 0-.71l1.06-1.06.71.71z"/></svg>
